images/50937629.svg

<?xml version="1.0" encoding="UTF-8"?>
<svg xmlns="http://www.w3.org/2000/svg" xmlns:xlink="http://www.w3.org/1999/xlink" width="300pt" height="300pt" viewBox="0 0 300 300" version="1.1">
<defs>
<g>
<symbol overflow="visible" id="glyph0-0">
<path style="stroke:none;" d="M 0.59375 2.125 L 0.59375 -8.46875 L 6.59375 -8.46875 L 6.59375 2.125 Z M 1.265625 1.453125 L 5.9375 1.453125 L 5.9375 -7.78125 L 1.265625 -7.78125 Z M 1.265625 1.453125 "/>
</symbol>
<symbol overflow="visible" id="glyph0-1">
<path style="stroke:none;" d="M 4.734375 -7.953125 C 3.867188 -7.953125 3.179688 -7.628906 2.671875 -6.984375 C 2.171875 -6.347656 1.921875 -5.472656 1.921875 -4.359375 C 1.921875 -3.265625 2.171875 -2.394531 2.671875 -1.75 C 3.179688 -1.113281 3.867188 -0.796875 4.734375 -0.796875 C 5.585938 -0.796875 6.265625 -1.113281 6.765625 -1.75 C 7.273438 -2.394531 7.53125 -3.265625 7.53125 -4.359375 C 7.53125 -5.472656 7.273438 -6.347656 6.765625 -6.984375 C 6.265625 -7.628906 5.585938 -7.953125 4.734375 -7.953125 Z M 4.734375 -8.90625 C 5.953125 -8.90625 6.925781 -8.492188 7.65625 -7.671875 C 8.394531 -6.847656 8.765625 -5.742188 8.765625 -4.359375 C 8.765625 -2.984375 8.394531 -1.882812 7.65625 -1.0625 C 6.925781 -0.238281 5.953125 0.171875 4.734375 0.171875 C 3.503906 0.171875 2.519531 -0.238281 1.78125 -1.0625 C 1.039062 -1.882812 0.671875 -2.984375 0.671875 -4.359375 C 0.671875 -5.742188 1.039062 -6.847656 1.78125 -7.671875 C 2.519531 -8.492188 3.503906 -8.90625 4.734375 -8.90625 Z M 4.734375 -8.90625 "/>
</symbol>
<symbol overflow="visible" id="glyph0-2">
<path style="stroke:none;" d="M 1.171875 -8.75 L 2.765625 -8.75 L 6.65625 -1.4375 L 6.65625 -8.75 L 7.796875 -8.75 L 7.796875 0 L 6.203125 0 L 2.328125 -7.3125 L 2.328125 0 L 1.171875 0 Z M 1.171875 -8.75 "/>
</symbol>
<symbol overflow="visible" id="glyph0-3">
<path style="stroke:none;" d="M 1.171875 -8.75 L 2.359375 -8.75 L 2.359375 -5.15625 L 6.65625 -5.15625 L 6.65625 -8.75 L 7.84375 -8.75 L 7.84375 0 L 6.65625 0 L 6.65625 -4.171875 L 2.359375 -4.171875 L 2.359375 0 L 1.171875 0 Z M 1.171875 -8.75 "/>
</symbol>
<symbol overflow="visible" id="glyph1-0">
<path style="stroke:none;" d="M 0.5 1.765625 L 0.5 -7.046875 L 5.5 -7.046875 L 5.5 1.765625 Z M 1.0625 1.21875 L 4.9375 1.21875 L 4.9375 -6.484375 L 1.0625 -6.484375 Z M 1.0625 1.21875 "/>
</symbol>
<symbol overflow="visible" id="glyph1-1">
<path style="stroke:none;" d="M 4.59375 -6.265625 L 4.59375 -3.546875 L 7.3125 -3.546875 L 7.3125 -2.71875 L 4.59375 -2.71875 L 4.59375 0 L 3.78125 0 L 3.78125 -2.71875 L 1.0625 -2.71875 L 1.0625 -3.546875 L 3.78125 -3.546875 L 3.78125 -6.265625 Z M 4.59375 -6.265625 "/>
</symbol>
</g>
</defs>
<g id="surface9489">
<rect x="0" y="0" width="300" height="300" style="fill:rgb(100%,100%,100%);fill-opacity:1;stroke:none;"/>
<path style="fill:none;stroke-width:1.2;stroke-linecap:butt;stroke-linejoin:miter;stroke:rgb(100%,0%,0%);stroke-opacity:1;stroke-miterlimit:10;" d="M 205.527344 217.25 L 194.210938 226.4375 "/>
<path style="fill:none;stroke-width:1.2;stroke-linecap:butt;stroke-linejoin:miter;stroke:rgb(0%,0%,0%);stroke-opacity:1;stroke-miterlimit:10;" d="M 194.210938 226.4375 L 182.894531 235.621094 "/>
<path style="fill:none;stroke-width:1.2;stroke-linecap:butt;stroke-linejoin:miter;stroke:rgb(0%,0%,0%);stroke-opacity:1;stroke-miterlimit:10;" d="M 220.511719 192.25 L 213.019531 204.75 "/>
<path style="fill:none;stroke-width:1.2;stroke-linecap:butt;stroke-linejoin:miter;stroke:rgb(100%,0%,0%);stroke-opacity:1;stroke-miterlimit:10;" d="M 213.019531 204.75 L 205.527344 217.25 "/>
<path style=" stroke:none;fill-rule:nonzero;fill:rgb(100%,100%,100%);fill-opacity:1;" d="M 200.527344 210.25 L 210.527344 210.25 L 210.527344 224.25 L 200.527344 224.25 Z M 200.527344 210.25 "/>
<g style="fill:rgb(100%,0%,0%);fill-opacity:1;">
  <use xlink:href="#glyph0-1" x="200.527344" y="221.388672"/>
</g>
<path style="fill:none;stroke-width:1.2;stroke-linecap:butt;stroke-linejoin:miter;stroke:rgb(0%,0%,0%);stroke-opacity:1;stroke-miterlimit:10;" d="M 182.894531 235.621094 L 155.347656 245.140625 "/>
<path style="fill:none;stroke-width:1.2;stroke-linecap:butt;stroke-linejoin:miter;stroke:rgb(0%,0%,0%);stroke-opacity:1;stroke-miterlimit:10;" d="M 155.347656 245.140625 L 126.203125 244.667969 "/>
<path style="fill:none;stroke-width:1.2;stroke-linecap:butt;stroke-linejoin:miter;stroke:rgb(0%,0%,0%);stroke-opacity:1;stroke-miterlimit:10;" d="M 126.203125 244.667969 L 98.980469 234.253906 "/>
<path style="fill:none;stroke-width:1.2;stroke-linecap:butt;stroke-linejoin:miter;stroke:rgb(0%,0%,0%);stroke-opacity:1;stroke-miterlimit:10;" d="M 125.929688 237.21875 L 104.152344 228.890625 "/>
<path style="fill:none;stroke-width:1.2;stroke-linecap:butt;stroke-linejoin:miter;stroke:rgb(0%,0%,0%);stroke-opacity:1;stroke-miterlimit:10;" d="M 98.980469 234.253906 L 76.960938 215.15625 "/>
<path style="fill:none;stroke-width:1.2;stroke-linecap:butt;stroke-linejoin:miter;stroke:rgb(0%,0%,0%);stroke-opacity:1;stroke-miterlimit:10;" d="M 76.960938 215.15625 L 69.878906 202.417969 "/>
<path style="fill:none;stroke-width:1.2;stroke-linecap:butt;stroke-linejoin:miter;stroke:rgb(0%,0%,100%);stroke-opacity:1;stroke-miterlimit:10;" d="M 69.878906 202.417969 L 62.796875 189.679688 "/>
<path style="fill:none;stroke-width:1.2;stroke-linecap:butt;stroke-linejoin:miter;stroke:rgb(0%,0%,100%);stroke-opacity:1;stroke-miterlimit:10;" d="M 62.796875 189.679688 L 60.503906 175.289062 "/>
<path style="fill:none;stroke-width:1.2;stroke-linecap:butt;stroke-linejoin:miter;stroke:rgb(0%,0%,0%);stroke-opacity:1;stroke-miterlimit:10;" d="M 60.503906 175.289062 L 58.207031 160.894531 "/>
<path style="fill:none;stroke-width:1.2;stroke-linecap:butt;stroke-linejoin:miter;stroke:rgb(0%,0%,100%);stroke-opacity:1;stroke-miterlimit:10;" d="M 62.796875 189.679688 L 49.023438 194.441406 "/>
<path style="fill:none;stroke-width:1.2;stroke-linecap:butt;stroke-linejoin:miter;stroke:rgb(0%,0%,0%);stroke-opacity:1;stroke-miterlimit:10;" d="M 49.023438 194.441406 L 35.25 199.199219 "/>
<path style=" stroke:none;fill-rule:nonzero;fill:rgb(100%,100%,100%);fill-opacity:1;" d="M 49.796875 181.179688 L 76.796875 181.179688 L 76.796875 198.179688 L 49.796875 198.179688 Z M 49.796875 181.179688 "/>
<g style="fill:rgb(0%,0%,100%);fill-opacity:1;">
  <use xlink:href="#glyph0-2" x="49.796875" y="195.344727"/>
  <use xlink:href="#glyph0-3" x="58.773438" y="195.344727"/>
</g>
<g style="fill:rgb(0%,0%,100%);fill-opacity:1;">
  <use xlink:href="#glyph1-1" x="67.796875" y="190.461914"/>
</g>
<path style="fill:none;stroke-width:1.2;stroke-linecap:butt;stroke-linejoin:miter;stroke:rgb(0%,0%,0%);stroke-opacity:1;stroke-miterlimit:10;" d="M 58.207031 160.894531 L 68.269531 127.046875 "/>
<path style="fill:none;stroke-width:1.2;stroke-linecap:butt;stroke-linejoin:miter;stroke:rgb(0%,0%,0%);stroke-opacity:1;stroke-miterlimit:10;" d="M 68.269531 127.046875 L 95.820312 117.523438 "/>
<path style="fill:none;stroke-width:1.2;stroke-linecap:butt;stroke-linejoin:miter;stroke:rgb(0%,0%,0%);stroke-opacity:1;stroke-miterlimit:10;" d="M 46.25 107.949219 L 68.269531 127.046875 "/>
<path style="fill:none;stroke-width:1.2;stroke-linecap:butt;stroke-linejoin:miter;stroke:rgb(0%,0%,0%);stroke-opacity:1;stroke-miterlimit:10;" d="M 52.945312 104.675781 L 70.5625 119.953125 "/>
<path style="fill:none;stroke-width:1.2;stroke-linecap:butt;stroke-linejoin:miter;stroke:rgb(0%,0%,0%);stroke-opacity:1;stroke-miterlimit:10;" d="M 95.820312 117.523438 L 101.347656 88.90625 "/>
<path style="fill:none;stroke-width:1.2;stroke-linecap:butt;stroke-linejoin:miter;stroke:rgb(0%,0%,0%);stroke-opacity:1;stroke-miterlimit:10;" d="M 89.640625 113.363281 L 94.0625 90.464844 "/>
<path style="fill:none;stroke-width:1.2;stroke-linecap:butt;stroke-linejoin:miter;stroke:rgb(0%,0%,0%);stroke-opacity:1;stroke-miterlimit:10;" d="M 101.347656 88.90625 L 115.121094 84.144531 "/>
<path style="fill:none;stroke-width:1.2;stroke-linecap:butt;stroke-linejoin:miter;stroke:rgb(0%,0%,100%);stroke-opacity:1;stroke-miterlimit:10;" d="M 115.121094 84.144531 L 128.898438 79.382812 "/>
<path style="fill:none;stroke-width:1.2;stroke-linecap:butt;stroke-linejoin:miter;stroke:rgb(0%,0%,0%);stroke-opacity:1;stroke-miterlimit:10;" d="M 101.347656 88.90625 L 79.328125 69.808594 "/>
<path style="fill:none;stroke-width:1.2;stroke-linecap:butt;stroke-linejoin:miter;stroke:rgb(0%,0%,100%);stroke-opacity:1;stroke-miterlimit:10;" d="M 128.898438 79.382812 L 143.46875 79.621094 "/>
<path style="fill:none;stroke-width:1.2;stroke-linecap:butt;stroke-linejoin:miter;stroke:rgb(0%,0%,0%);stroke-opacity:1;stroke-miterlimit:10;" d="M 143.46875 79.621094 L 158.042969 79.859375 "/>
<path style=" stroke:none;fill-rule:nonzero;fill:rgb(100%,100%,100%);fill-opacity:1;" d="M 119.898438 72.382812 L 137.898438 72.382812 L 137.898438 86.382812 L 119.898438 86.382812 Z M 119.898438 72.382812 "/>
<g style="fill:rgb(0%,0%,100%);fill-opacity:1;">
  <use xlink:href="#glyph0-2" x="119.898438" y="83.521484"/>
  <use xlink:href="#glyph0-3" x="128.875" y="83.521484"/>
</g>
<path style="fill:none;stroke-width:1.2;stroke-linecap:butt;stroke-linejoin:miter;stroke:rgb(0%,0%,0%);stroke-opacity:1;stroke-miterlimit:10;" d="M 158.042969 79.859375 L 171.652344 85.066406 "/>
<path style="fill:none;stroke-width:1.2;stroke-linecap:butt;stroke-linejoin:miter;stroke:rgb(0%,0%,100%);stroke-opacity:1;stroke-miterlimit:10;" d="M 171.652344 85.066406 L 185.265625 90.273438 "/>
<path style="fill:none;stroke-width:1.2;stroke-linecap:butt;stroke-linejoin:miter;stroke:rgb(0%,0%,100%);stroke-opacity:1;stroke-miterlimit:10;" d="M 173.023438 54.859375 L 165.53125 67.359375 "/>
<path style="fill:none;stroke-width:1.2;stroke-linecap:butt;stroke-linejoin:miter;stroke:rgb(0%,0%,0%);stroke-opacity:1;stroke-miterlimit:10;" d="M 165.53125 67.359375 L 158.042969 79.859375 "/>
<path style="fill:none;stroke-width:1.2;stroke-linecap:butt;stroke-linejoin:miter;stroke:rgb(0%,0%,100%);stroke-opacity:1;stroke-miterlimit:10;" d="M 177.410156 60.882812 L 171.414062 70.882812 "/>
<path style="fill:none;stroke-width:1.2;stroke-linecap:butt;stroke-linejoin:miter;stroke:rgb(0%,0%,0%);stroke-opacity:1;stroke-miterlimit:10;" d="M 171.414062 70.882812 L 165.421875 80.882812 "/>
<path style="fill:none;stroke-width:1.2;stroke-linecap:butt;stroke-linejoin:miter;stroke:rgb(0%,0%,100%);stroke-opacity:1;stroke-miterlimit:10;" d="M 185.265625 90.273438 L 196.273438 99.820312 "/>
<path style="fill:none;stroke-width:1.2;stroke-linecap:butt;stroke-linejoin:miter;stroke:rgb(0%,0%,0%);stroke-opacity:1;stroke-miterlimit:10;" d="M 196.273438 99.820312 L 207.285156 109.371094 "/>
<path style="fill:none;stroke-width:1.2;stroke-linecap:butt;stroke-linejoin:miter;stroke:rgb(0%,0%,100%);stroke-opacity:1;stroke-miterlimit:10;" d="M 182.972656 97.363281 L 191.78125 105.003906 "/>
<path style="fill:none;stroke-width:1.2;stroke-linecap:butt;stroke-linejoin:miter;stroke:rgb(0%,0%,0%);stroke-opacity:1;stroke-miterlimit:10;" d="M 191.78125 105.003906 L 200.589844 112.640625 "/>
<path style=" stroke:none;fill-rule:nonzero;fill:rgb(100%,100%,100%);fill-opacity:1;" d="M 181.265625 83.273438 L 190.265625 83.273438 L 190.265625 97.273438 L 181.265625 97.273438 Z M 181.265625 83.273438 "/>
<g style="fill:rgb(0%,0%,100%);fill-opacity:1;">
  <use xlink:href="#glyph0-2" x="181.265625" y="94.412109"/>
</g>
<path style="fill:none;stroke-width:1.2;stroke-linecap:butt;stroke-linejoin:miter;stroke:rgb(0%,0%,0%);stroke-opacity:1;stroke-miterlimit:10;" d="M 207.285156 109.371094 L 221.445312 134.847656 "/>
<path style="fill:none;stroke-width:1.2;stroke-linecap:butt;stroke-linejoin:miter;stroke:rgb(0%,0%,0%);stroke-opacity:1;stroke-miterlimit:10;" d="M 207.285156 109.371094 L 216.328125 80.808594 "/>
<path style="fill:none;stroke-width:1.2;stroke-linecap:butt;stroke-linejoin:miter;stroke:rgb(0%,0%,0%);stroke-opacity:1;stroke-miterlimit:10;" d="M 221.445312 134.847656 L 226.039062 163.632812 "/>
<path style="fill:none;stroke-width:1.2;stroke-linecap:butt;stroke-linejoin:miter;stroke:rgb(0%,0%,0%);stroke-opacity:1;stroke-miterlimit:10;" d="M 250.589844 135.324219 L 221.445312 134.847656 "/>
<path style="fill:none;stroke-width:1.2;stroke-linecap:butt;stroke-linejoin:miter;stroke:rgb(0%,0%,0%);stroke-opacity:1;stroke-miterlimit:10;" d="M 247.5625 142.132812 L 224.25 141.753906 "/>
<path style="fill:none;stroke-width:1.2;stroke-linecap:butt;stroke-linejoin:miter;stroke:rgb(0%,0%,0%);stroke-opacity:1;stroke-miterlimit:10;" d="M 226.039062 163.632812 L 220.511719 192.25 "/>
<path style="fill:none;stroke-width:1.2;stroke-linecap:butt;stroke-linejoin:miter;stroke:rgb(0%,0%,0%);stroke-opacity:1;stroke-miterlimit:10;" d="M 218.75 165.191406 L 214.328125 188.085938 "/>
<path style="fill:none;stroke-width:1.2;stroke-linecap:butt;stroke-linejoin:miter;stroke:rgb(0%,0%,0%);stroke-opacity:1;stroke-miterlimit:10;" d="M 220.511719 192.25 L 235.136719 189.027344 "/>
<path style="fill:none;stroke-width:1.2;stroke-linecap:butt;stroke-linejoin:miter;stroke:rgb(0%,0%,100%);stroke-opacity:1;stroke-miterlimit:10;" d="M 235.136719 189.027344 L 249.765625 185.800781 "/>
<path style="fill:none;stroke-width:1.2;stroke-linecap:butt;stroke-linejoin:miter;stroke:rgb(0%,0%,100%);stroke-opacity:1;stroke-miterlimit:10;" d="M 249.765625 185.800781 L 257.257812 173.300781 "/>
<path style="fill:none;stroke-width:1.2;stroke-linecap:butt;stroke-linejoin:miter;stroke:rgb(0%,0%,0%);stroke-opacity:1;stroke-miterlimit:10;" d="M 257.257812 173.300781 L 264.75 160.800781 "/>
<path style="fill:none;stroke-width:1.2;stroke-linecap:butt;stroke-linejoin:miter;stroke:rgb(0%,0%,100%);stroke-opacity:1;stroke-miterlimit:10;" d="M 245.382812 179.777344 L 251.375 169.773438 "/>
<path style="fill:none;stroke-width:1.2;stroke-linecap:butt;stroke-linejoin:miter;stroke:rgb(0%,0%,0%);stroke-opacity:1;stroke-miterlimit:10;" d="M 251.375 169.773438 L 257.367188 159.773438 "/>
<path style=" stroke:none;fill-rule:nonzero;fill:rgb(100%,100%,100%);fill-opacity:1;" d="M 245.765625 178.800781 L 254.765625 178.800781 L 254.765625 192.800781 L 245.765625 192.800781 Z M 245.765625 178.800781 "/>
<g style="fill:rgb(0%,0%,100%);fill-opacity:1;">
  <use xlink:href="#glyph0-2" x="245.765625" y="189.939453"/>
</g>
<path style="fill:none;stroke-width:1.2;stroke-linecap:butt;stroke-linejoin:miter;stroke:rgb(0%,0%,0%);stroke-opacity:1;stroke-miterlimit:10;" d="M 264.75 160.800781 L 250.589844 135.324219 "/>
<path style="fill:none;stroke-width:1.2;stroke-linecap:butt;stroke-linejoin:miter;stroke:rgb(0%,0%,0%);stroke-opacity:1;stroke-miterlimit:10;" d="M 216.328125 80.808594 L 202.167969 55.332031 "/>
<path style="fill:none;stroke-width:1.2;stroke-linecap:butt;stroke-linejoin:miter;stroke:rgb(0%,0%,0%);stroke-opacity:1;stroke-miterlimit:10;" d="M 208.917969 81.59375 L 197.589844 61.210938 "/>
<path style="fill:none;stroke-width:1.2;stroke-linecap:butt;stroke-linejoin:miter;stroke:rgb(0%,0%,0%);stroke-opacity:1;stroke-miterlimit:10;" d="M 202.167969 55.332031 L 187.597656 55.09375 "/>
<path style="fill:none;stroke-width:1.2;stroke-linecap:butt;stroke-linejoin:miter;stroke:rgb(0%,0%,100%);stroke-opacity:1;stroke-miterlimit:10;" d="M 187.597656 55.09375 L 173.023438 54.859375 "/>
<path style=" stroke:none;fill-rule:nonzero;fill:rgb(100%,100%,100%);fill-opacity:1;" d="M 169.023438 47.859375 L 178.023438 47.859375 L 178.023438 61.859375 L 169.023438 61.859375 Z M 169.023438 47.859375 "/>
<g style="fill:rgb(0%,0%,100%);fill-opacity:1;">
  <use xlink:href="#glyph0-2" x="169.023438" y="58.998047"/>
</g>
<path style="fill:none;stroke-width:1.2;stroke-linecap:butt;stroke-linejoin:miter;stroke:rgb(0%,0%,0%);stroke-opacity:1;stroke-miterlimit:10;" d="M 79.328125 69.808594 L 51.78125 79.328125 "/>
<path style="fill:none;stroke-width:1.2;stroke-linecap:butt;stroke-linejoin:miter;stroke:rgb(0%,0%,0%);stroke-opacity:1;stroke-miterlimit:10;" d="M 78.8125 77.242188 L 56.773438 84.859375 "/>
<path style="fill:none;stroke-width:1.2;stroke-linecap:butt;stroke-linejoin:miter;stroke:rgb(0%,0%,0%);stroke-opacity:1;stroke-miterlimit:10;" d="M 51.78125 79.328125 L 46.25 107.949219 "/>
</g>
</svg>

<svg xmlns="http://www.w3.org/2000/svg" xmlns:xlink="http://www.w3.org/1999/xlink" width="300pt" height="300pt" viewBox="0 0 300 300"><defs><symbol overflow="visible"><path d="M.594 2.125V-8.47h6V2.126zm.672-.672h4.671V-7.78h-4.67zm0 0"/></symbol><symbol overflow="visible" id="a"><path d="M4.734-7.953c-.867 0-1.554.324-2.062.97-.5.635-.75 1.51-.75 2.624 0 1.094.25 1.965.75 2.61.508.637 1.195.953 2.062.953.852 0 1.532-.316 2.032-.953.507-.645.765-1.516.765-2.61 0-1.113-.257-1.988-.764-2.624-.5-.645-1.18-.97-2.032-.97zm0-.953c1.22 0 2.192.414 2.922 1.234.74.824 1.11 1.93 1.11 3.313 0 1.376-.37 2.477-1.11 3.298C6.926-.24 5.953.17 4.734.17c-1.23 0-2.214-.41-2.953-1.234C1.04-1.882.673-2.984.673-4.36c0-1.382.367-2.488 1.11-3.312.738-.82 1.722-1.234 2.952-1.234zm0 0"/></symbol><symbol overflow="visible" id="b"><path d="M1.172-8.75h1.594l3.89 7.313V-8.75h1.14V0H6.204L2.328-7.313V0H1.172zm0 0"/></symbol><symbol overflow="visible" id="c"><path d="M1.172-8.75H2.36v3.594h4.296V-8.75h1.188V0H6.656v-4.172H2.36V0H1.17zm0 0"/></symbol><symbol overflow="visible"><path d="M.5 1.766v-8.813h5v8.813zm.563-.547h3.875v-7.704H1.063zm0 0"/></symbol><symbol overflow="visible" id="d"><path d="M4.594-6.266v2.72h2.718v.827H4.595V0H3.78v-2.72H1.064v-.827H3.78v-2.72zm0 0"/></symbol></defs><g><path fill="#fff" d="M0 0h300v300H0z"/><path d="M205.527 217.25l-11.316 9.188" stroke-width="1.2" stroke="#f00" stroke-miterlimit="10" fill="none"/><path d="M194.21 226.438l-11.315 9.183M220.512 192.25l-7.492 12.5" stroke-width="1.2" stroke="#000" stroke-miterlimit="10" fill="none"/><path d="M213.02 204.75l-7.493 12.5" stroke-width="1.2" stroke="#f00" stroke-miterlimit="10" fill="none"/><path d="M200.527 210.25h10v14h-10zm0 0" fill="#fff"/><use xlink:href="#a" x="200.527" y="221.389" fill="#f00"/><path d="M182.895 235.62l-27.547 9.52M155.348 245.14l-29.145-.472M126.203 244.668L98.98 234.254M125.93 237.22l-21.778-8.33M98.98 234.254l-22.02-19.098M76.96 215.156l-7.08-12.738" stroke-width="1.2" stroke="#000" stroke-miterlimit="10" fill="none"/><path d="M69.88 202.418l-7.083-12.738M62.797 189.68l-2.293-14.39" stroke-width="1.2" stroke="#00f" stroke-miterlimit="10" fill="none"/><path d="M60.504 175.29l-2.297-14.395" stroke-width="1.2" stroke="#000" stroke-miterlimit="10" fill="none"/><path d="M62.797 189.68l-13.774 4.76" stroke-width="1.2" stroke="#00f" stroke-miterlimit="10" fill="none"/><path d="M49.023 194.44L35.25 199.2" stroke-width="1.2" stroke="#000" stroke-miterlimit="10" fill="none"/><path d="M49.797 181.18h27v17h-27zm0 0" fill="#fff"/><g fill="#00f"><use xlink:href="#b" x="49.797" y="195.345"/><use xlink:href="#c" x="58.773" y="195.345"/></g><use xlink:href="#d" x="67.797" y="190.462" fill="#00f"/><path d="M58.207 160.895l10.063-33.848M68.27 127.047l27.55-9.524M46.25 107.95l22.02 19.097M52.945 104.676l17.617 15.277M95.82 117.523l5.528-28.617M89.64 113.363l4.422-22.898M101.348 88.906l13.773-4.76" stroke-width="1.2" stroke="#000" stroke-miterlimit="10" fill="none"/><path d="M115.12 84.145l13.778-4.762" stroke-width="1.2" stroke="#00f" stroke-miterlimit="10" fill="none"/><path d="M101.348 88.906L79.328 69.81" stroke-width="1.2" stroke="#000" stroke-miterlimit="10" fill="none"/><path d="M128.898 79.383l14.57.238" stroke-width="1.2" stroke="#00f" stroke-miterlimit="10" fill="none"/><path d="M143.47 79.62l14.573.24" stroke-width="1.2" stroke="#000" stroke-miterlimit="10" fill="none"/><path d="M119.898 72.383h18v14h-18zm0 0" fill="#fff"/><g fill="#00f"><use xlink:href="#b" x="119.898" y="83.521"/><use xlink:href="#c" x="128.875" y="83.521"/></g><path d="M158.043 79.86l13.61 5.206" stroke-width="1.2" stroke="#000" stroke-miterlimit="10" fill="none"/><path d="M171.652 85.066l13.614 5.207M173.023 54.86l-7.492 12.5" stroke-width="1.2" stroke="#00f" stroke-miterlimit="10" fill="none"/><path d="M165.53 67.36l-7.487 12.5" stroke-width="1.2" stroke="#000" stroke-miterlimit="10" fill="none"/><path d="M177.41 60.883l-5.996 10" stroke-width="1.2" stroke="#00f" stroke-miterlimit="10" fill="none"/><path d="M171.414 70.883l-5.992 10" stroke-width="1.2" stroke="#000" stroke-miterlimit="10" fill="none"/><path d="M185.266 90.273l11.007 9.547" stroke-width="1.2" stroke="#00f" stroke-miterlimit="10" fill="none"/><path d="M196.273 99.82l11.012 9.55" stroke-width="1.2" stroke="#000" stroke-miterlimit="10" fill="none"/><path d="M182.973 97.363l8.808 7.64" stroke-width="1.2" stroke="#00f" stroke-miterlimit="10" fill="none"/><path d="M191.78 105.004l8.81 7.637" stroke-width="1.2" stroke="#000" stroke-miterlimit="10" fill="none"/><path d="M181.266 83.273h9v14h-9zm0 0" fill="#fff"/><use xlink:href="#b" x="181.266" y="94.412" fill="#00f"/><path d="M207.285 109.37l14.16 25.478M207.285 109.37l9.043-28.56M221.445 134.848l4.594 28.785M250.59 135.324l-29.145-.476M247.563 142.133l-23.313-.38M226.04 163.633l-5.528 28.617M218.75 165.19l-4.422 22.896M220.512 192.25l14.625-3.223" stroke-width="1.2" stroke="#000" stroke-miterlimit="10" fill="none"/><path d="M235.137 189.027l14.63-3.226M249.766 185.8l7.492-12.5" stroke-width="1.2" stroke="#00f" stroke-miterlimit="10" fill="none"/><path d="M257.258 173.3l7.492-12.5" stroke-width="1.2" stroke="#000" stroke-miterlimit="10" fill="none"/><path d="M245.383 179.777l5.992-10.004" stroke-width="1.2" stroke="#00f" stroke-miterlimit="10" fill="none"/><path d="M251.375 169.773l5.992-10" stroke-width="1.2" stroke="#000" stroke-miterlimit="10" fill="none"/><path d="M245.766 178.8h9v14h-9zm0 0" fill="#fff"/><use xlink:href="#b" x="245.766" y="189.939" fill="#00f"/><path d="M264.75 160.8l-14.16-25.476M216.328 80.81l-14.16-25.478M208.918 81.594L197.59 61.21M202.168 55.332l-14.57-.238" stroke-width="1.2" stroke="#000" stroke-miterlimit="10" fill="none"/><path d="M187.598 55.094l-14.575-.235" stroke-width="1.2" stroke="#00f" stroke-miterlimit="10" fill="none"/><path d="M169.023 47.86h9v14h-9zm0 0" fill="#fff"/><use xlink:href="#b" x="169.023" y="58.998" fill="#00f"/><path d="M79.328 69.81L51.78 79.327M78.813 77.242l-22.04 7.617M51.78 79.328l-5.53 28.62" stroke-width="1.2" stroke="#000" stroke-miterlimit="10" fill="none"/></g></svg>
